!!!COM: the-lonely-island
!!!OTL: jack-sparrow
!!!RNB: hooktheoryid: RZwxKaGbmed
**kern	**text
*clefG2	*
*k[b-e-a-]	*
*M4/4	*
=1	=1
4b-	Cm
8b-	.
8b-	.
4b-	.
8b-	Ab
[8b-	.
=2	=2
8b-]	.
8e-	.
2e-	.
8e-	.
8e-	.
=3	=3
4e-	Eb
4e-	.
4g	.
8f	Bb
[8f	.
=4	=4
2.f]	.
8e-	Bb
8e-	.
=5	=5
4b-	Cm
8b-	.
4b-	.
[8b-L	.
8b-]J	Ab
[8b-	.
=6	=6
8b-]	.
8e-	.
8e-	.
2e-	.
8e-	.
=7	=7
4e-	Eb
8e-	.
8e-	.
4g	.
8g	Bb
[8f	.
=8	=8
[2.fL	.
4f]J	Bb
=9	=9
1r	.
*-	*-